X:1
T:Lieder und Gesänge, Vol.I
T:Sag an, o lieber Vogel mein
T:Robert Schumann
T:Friedrich Hebbel
T:Sag an, o lieber Vogel mein
T:Op. 27,1 bearbeitet für gemischten Chor
T:CPDL - Creative Commons Attribution Non Commercial 3.0
T:CPDL - Creative Commons Attribution Non Commercial 3.0
C:Robert Schumann
Z:Friedrich Hebbel
Z:CPDL - Creative Commons Attribution Non Commercial 3.0
%%score [ ( 1 2 ) ( 3 4 ) ]
L:1/8
Q:1/4=110
M:4/4
K:Bb
V:1 treble nm="Sopran\nAlt"
V:2 treble 
V:3 bass nm="Tenor\nBass"
V:4 bass 
V:1
"^Einfach"!p! F2 | F3 D D2 F2 | d3 c B2 F2 | G3 A BBdc | A6 z2 |!pp! d2 c>B c4 | d2 c>B c3 F | %7
w: 1.~"Sag'|an, o lie- ber|Vo- gel mein, sag'|an, wo- hin die Rei- se|dein?"|Weiß nicht, wo- hin,|mich treibt der Sinn, drum|
w: 2.~"Sag'|an, o liebs- ter|Vo- gel mir, sag',|was ver- spricht die Hoff- nung|dir?"|Ach, lin- de Luft|und sü- ßen Duft und|
w: 3.~"Du|hast die schö- ne|Fer- ne nie ge-|se- hen, und du glaubst an|sie?"|Du fragst mich viel,|und das ist Spiel, die|
!<(! G3 A!<)! (B2!>(! d)c!>)! | B2[Q:1/4=100]"^ritard." A2 B2 ||[Q:1/4=110]"^a tempo"!p! B2 | %10
w: muss der Pfad _ wohl|rich- tig sein.||
w: neu- en Lenz _ ver-|spricht sie mir.||
w: Ant- wort a- * ber|macht mir Müh'.||
 G3 A B2 c2 | B3 A A2 A2 | F3 G _A2 B2 | _A3 G G2 G2 | =B3 B c2 c2 | f3 f e2 G2 | %16
w: ||||||
w: ||||||
w: ||||||
 G2!<(! A2 (B2!<)!!>(! d)c!>)! | A3 A B2 B2 | G3[Q:1/4=100]"^ritard." A (B2 d)c | A3 A B4 |] %20
w: * * wirk- * lich||||
w: ||||
w: ||||
V:2
 B,2 | B,3 B, B,2 B,2 | F3 E D2 F2 | E3 F FFGG | F6 x2 | B2 F>D F4 | B2 F>F F3 F | E3 F (F2 G)G | %8
w: ||||||||
 F2 E2 D2 || F2 | =E3 F G2 G2 | F3 F F2 F2 | D3 E E2 F2 | E3 E E2 E2 | G3 G G2 G2 | G3 G G2 C2 | %16
w: |4.~Nun|zog in gläu- big|from- mem Sinn der|Vo- gel ü- ber's|Meer da- hin und|lin- de Luft und|sü- ßer Duft, sie|
 G2 ^F2 G2 G2 | E3 E D2 D2 | E3 E F3 G | F3 F F4 |] %20
w: wur- den wirk- lich|sein Ge- winn, sie|wur- den wirk- lich|sein Ge- winn!|
V:3
!p! F,2 | F,3 F, F,2 F,2 | B,3 A, B,2 B,2 | B,3 C B,B,G,C | C6 z2 | z4!pp! A,2 C>F, | %6
w: |||||mich treibt der|
w: |||||und sü- ßen|
w: |||||und das ist|
 F,2 A,>B, A,3 B, |!<(! B,2 C2!<)! (B,2!>(! G,)C!>)! | D2 C2 B,2 ||!p! D2 | C3 C D2 C2 | %11
w: Sinn, * * * *|||||
w: Duft * * * *|||||
w: Spiel, * * * *|||||
 C3 C C2 C2 | B,3 B, C2 B,2 | B,3 B, B,2 E2 | D3 D C2 C2 | D3 D C2 G,2 | %16
w: |||||
w: |||||
w: |||||
 C2!<(! C2 B,2!<)!!>(! E2!>)! | C3 C B,2 B,2 | B,3 C B,3 C | E3 E D4 |] %20
w: ||||
w: ||||
w: ||||
V:4
 D,2 | D,3 B,, B,,2 D,2 | F,3 F, B,2 D,2 | E,3 E, D,D,E,E, | F,6 x2 | x4 F,2 A,>A,, | %6
 B,,2 F,>D, (F,2 E,)D, | E,2 E,2 D,2 E,2 | F,2 F,2 B,,2 || B,2 | B,3 A, G,2 =E,2 | F,3 F, F,2 F,2 | %12
 _A,3 G, F,2 D,2 | E,3 E, E,2 E,2 | F,3 F, E,2 E,2 | =B,,3 B,, C,2 E,2 | E,2 D,2 G,2 E,2 | %17
 F,3 F, G,2 G,2 | E,3 C, D,3 E, | F,3 F, B,,4 |] %20

